polaris-icons/icons/new-icons/LabelPrinterMajor.svg

<svg width="20" height="20" viewBox="0 0 20 20" fill="none" xmlns="http://www.w3.org/2000/svg">
<path d="M14 6.5C14 7.05228 13.5523 7.5 13 7.5C12.4477 7.5 12 7.05228 12 6.5C12 5.94772 12.4477 5.5 13 5.5C13.5523 5.5 14 5.94772 14 6.5Z" fill="#4A4A4A"/>
<path d="M6.75 5.75C6.33579 5.75 6 6.08579 6 6.5C6 6.91421 6.33579 7.25 6.75 7.25H9.75C10.1642 7.25 10.5 6.91421 10.5 6.5C10.5 6.08579 10.1642 5.75 9.75 5.75H6.75Z" fill="#4A4A4A"/>
<path d="M8.5 13.5C8.5 13.0858 8.83579 12.75 9.25 12.75H10.75C11.1642 12.75 11.5 13.0858 11.5 13.5C11.5 13.9142 11.1642 14.25 10.75 14.25H9.25C8.83579 14.25 8.5 13.9142 8.5 13.5Z" fill="#4A4A4A"/>
<path d="M9.25 10.25C8.83579 10.25 8.5 10.5858 8.5 11C8.5 11.4142 8.83579 11.75 9.25 11.75H10.75C11.1642 11.75 11.5 11.4142 11.5 11C11.5 10.5858 11.1642 10.25 10.75 10.25H9.25Z" fill="#4A4A4A"/>
<path fill-rule="evenodd" clip-rule="evenodd" d="M14 13.9888V14.5C14 15.6046 13.1046 16.5 12 16.5H8C6.89543 16.5 6 15.6046 6 14.5V13.9888C4.59838 13.8625 3.5 12.6845 3.5 11.25V6.25C3.5 4.73122 4.73122 3.5 6.25 3.5H13.75C15.2688 3.5 16.5 4.73122 16.5 6.25V11.25C16.5 12.6845 15.4016 13.8625 14 13.9888ZM6.25 5C5.55964 5 5 5.55964 5 6.25V11.25C5 11.8547 5.42944 12.3592 6 12.475V10C6 8.89543 6.89543 8 8 8H12C13.1046 8 14 8.89543 14 10V12.475C14.5706 12.3592 15 11.8547 15 11.25V6.25C15 5.55964 14.4404 5 13.75 5H6.25ZM8 9.5H12C12.2761 9.5 12.5 9.72386 12.5 10V14.5C12.5 14.7761 12.2761 15 12 15H8C7.72386 15 7.5 14.7761 7.5 14.5V10C7.5 9.72386 7.72386 9.5 8 9.5Z" fill="#4A4A4A"/>
</svg>

<svg viewBox="0 0 20 20" xmlns="http://www.w3.org/2000/svg"><path d="M14 6.5a1 1 0 1 1-2 0 1 1 0 0 1 2 0Z" fill="#5C5F62"/><path d="M6.75 5.75a.75.75 0 0 0 0 1.5h3a.75.75 0 0 0 0-1.5h-3Z" fill="#5C5F62"/><path d="M8.5 13.5a.75.75 0 0 1 .75-.75h1.5a.75.75 0 0 1 0 1.5h-1.5a.75.75 0 0 1-.75-.75Z" fill="#5C5F62"/><path d="M9.25 10.25a.75.75 0 0 0 0 1.5h1.5a.75.75 0 0 0 0-1.5h-1.5Z" fill="#5C5F62"/><path fill-rule="evenodd" d="M14 13.989v.511a2 2 0 0 1-2 2h-4a2 2 0 0 1-2-2v-.511a2.75 2.75 0 0 1-2.5-2.739v-5a2.75 2.75 0 0 1 2.75-2.75h7.5a2.75 2.75 0 0 1 2.75 2.75v5a2.75 2.75 0 0 1-2.5 2.739Zm-7.75-8.989c-.69 0-1.25.56-1.25 1.25v5c0 .605.43 1.11 1 1.225v-2.475a2 2 0 0 1 2-2h4a2 2 0 0 1 2 2v2.475c.57-.116 1-.62 1-1.225v-5c0-.69-.56-1.25-1.25-1.25h-7.5Zm1.75 4.5h4a.5.5 0 0 1 .5.5v4.5a.5.5 0 0 1-.5.5h-4a.5.5 0 0 1-.5-.5v-4.5a.5.5 0 0 1 .5-.5Z" fill="#5C5F62"/></svg>
